X:528
T:Marquis of Tullybardine, The
R:reel
C:John Crerar
B:The Skye Collection
M:C
L:1/8
K:A
A/A/A cA eAAf|eAAa fedc|Bcde fBBg|aBBa gfea|
A/A/A cA eAAf|eAAa fedc|defa fecf|1 ecBc f2ec :|ecBc f2eg||
aA A/A/A cAAg|aAAa fedc|bB B/B/B dBB^a|bBB=a gfeg|
aA A/A/A cAAg|aAAa fedc|defa fecf|1 ecBc f2eg :|2 ecBc f2ec||

